X:6683
T:The Cutting of the Turf
O:england
B:Joyce, P. W.; "Old Irish Folk Music and Songs"
R:tune
L:1/8
M:C
K:G
"Mod."\
EG|A3 B d2 e2|G3 A E2 DE|G2 AB G2 G2|G6 Bd|
e2 e2 B2 g2|e4 d2 dB|A3 B d2 e2|B4 G/B/d|
e2 e2 B2 g2|e4 d2 dB|A3 B G2 F2|E6 FG|
A3 B d2 e2|G3 A E2 DE|G2 AB G2 G2|G6||


